X:19152
T:Xota Miudes (Arrg.)
T:Jota Miudes (Arrg.)
R:Xota
C:Tradicional
S:Música Tradicional Asturiana, (C) Tello & Tito. Asturies, 2001.
S:http://pagina.de/MusTradAst <telloytito@asturies.org>
O:Miudes (El Franco)
A:Asturies
G:Arrg.
Z:Curdión
M:3/8
L:1/8
Q:1/4=100
K:C
E/F/E/F/|:"C"G E/F/E/F/|"C"G E/F/E/F/|"C"G A/G/F/E/|"Dm"FDB,|
|"C"G, D/E/D/E/|"Dm"F D/E/D/E/|"Dm"F G/F/E/D/|"C"E C2-|"C"C E/F/E/F/:|
|"Dm"F D/E/D/E/|"Dm"F G/F/E/D/|"C"CEG|"C"CEG|"G"G,B,D|"G"G,B,D|
"F"F,A,C|"F"F,A,C|"G"G,B,D|"G"G,B,D|"C"C E/C/E/G/|"C"C E/C/E/G/|
|"G"G, B,/G,/B,/D/|"G"G, B,/G,/B,/D/|"G"F/D/B,/G,/B,/D/|
["C"CE][C/E/]["C"C/E/][CE]|["C"C3E3]|
K:F
|"F"F3/2G/A|"F"AGF|"C"G3/2F/E|"C"E3|
|"Gm"G3/2A/B|"Gm"BAG|"F"A3/2G/F|"F"F3|
|"F"F3/2G/A|"F"AGF|"C"G3/2F/E|"C"GGG|
|"C"F/G/F/E/ E|"F"FFF|"C"E/F/E/D/ C-|"C"[C3E3]|!
"Últimos dos compases en la segunda vuelta"
|"C"[C3E3]|"C"[CEG] z2|


